src/assets/icon.svg

<svg width="40" height="40" viewBox="0 0 40 40" fill="none" xmlns="http://www.w3.org/2000/svg">
<path d="M19.1666 26.6665H20.8334V38.3334H19.1666V26.6665ZM7.5 23.3334H32.5V24.9999H7.5V23.3334ZM35.8334 12.4999C33.5358 12.4999 31.6666 10.6307 31.6666 8.33338C31.6666 6.03572 33.5358 4.1665 35.8334 4.1665C38.1308 4.1665 40 6.03572 40 8.33338C40 10.6307 38.1308 12.4999 35.8334 12.4999ZM35.8334 5.83338C34.4549 5.83338 33.3334 6.95486 33.3334 8.33338C33.3334 9.7115 34.4549 10.8334 35.8334 10.8334C37.2116 10.8334 38.3334 9.7115 38.3334 8.33338C38.3334 6.95486 37.2116 5.83338 35.8334 5.83338Z" fill="white"/>
<path d="M27.5001 38.3334C27.3902 38.3334 27.2785 38.3123 27.1717 38.2656C26.7484 38.0841 26.5525 37.5942 26.7344 37.1716L29.2344 31.3381C29.2985 31.1882 29.4053 31.0605 29.5414 30.9707C29.6775 30.881 29.837 30.8332 30.0001 30.8334H35.8335C37.2116 30.8334 38.3335 29.7115 38.3335 28.3334V17.4999C38.3335 16.5807 37.5858 15.8334 36.6666 15.8334H35.8335C35.2485 15.8334 34.7159 16.2201 33.9985 17.1701C33.1934 18.2333 30.7502 21.2331 30.6467 21.3598C30.5684 21.4556 30.4697 21.5329 30.3579 21.5859C30.2461 21.639 30.1238 21.6665 30.0001 21.6665H25.8335C25.3733 21.6665 25.0001 22.04 25.0001 22.4999V24.1665C25.0001 24.276 24.9786 24.3844 24.9368 24.4855C24.8949 24.5867 24.8335 24.6786 24.7561 24.756C24.6787 24.8334 24.5868 24.8948 24.4857 24.9367C24.3845 24.9785 24.2761 25 24.1666 24.9999C24.0572 25 23.9488 24.9785 23.8476 24.9367C23.7465 24.8948 23.6546 24.8334 23.5772 24.756C23.4998 24.6786 23.4385 24.5867 23.3967 24.4855C23.3548 24.3844 23.3334 24.276 23.3335 24.1665V22.4999C23.3335 21.1214 24.455 19.9999 25.8335 19.9999H29.6033C30.2601 19.1915 32.0301 17.0083 32.6685 16.1642C33.3726 15.234 34.3674 14.1665 35.8335 14.1665H36.6666C38.505 14.1665 40.0001 15.6616 40.0001 17.4999V28.3334C40.0001 30.6307 38.1308 32.4999 35.8335 32.4999H30.5494L28.2658 37.8283C28.1308 38.1442 27.8233 38.3334 27.5001 38.3334Z" fill="white"/>
<path d="M24.1664 38.3335C24.0797 38.3335 23.9906 38.3191 23.903 38.2901C23.4673 38.1452 23.2307 37.6734 23.3766 37.2358L26.1399 28.9451C26.5922 27.5834 27.8639 26.6666 29.3016 26.6666H31.6664V24.1666C31.6664 23.7058 32.039 23.3335 32.4998 23.3335C32.9606 23.3335 33.3333 23.7058 33.3333 24.1666V27.5001C33.3333 27.6095 33.3118 27.7179 33.27 27.8191C33.2281 27.9203 33.1668 28.0122 33.0893 28.0896C33.0119 28.167 32.92 28.2284 32.8189 28.2702C32.7177 28.3121 32.6093 28.3336 32.4998 28.3335H29.3015C28.5832 28.3335 27.9473 28.7909 27.7214 29.4718L24.9574 37.7634C24.9019 37.9293 24.7957 38.0737 24.6538 38.1759C24.5118 38.2782 24.3414 38.3334 24.1664 38.3335Z" fill="white"/>
<path d="M32.4991 24.9999C32.3252 24.9999 32.15 24.946 32.0002 24.8333C31.6318 24.5574 31.5567 24.0349 31.8332 23.6675L34.3332 20.3341C34.6091 19.9657 35.1316 19.8916 35.4993 20.1675C35.8676 20.4433 35.9423 20.9658 35.6659 21.3332L33.1659 24.6667C33.0032 24.8849 32.7534 24.9999 32.4991 24.9999ZM4.16656 12.4999C1.86922 12.4999 0 10.6307 0 8.33338C0 6.03572 1.86922 4.1665 4.16656 4.1665C6.46422 4.1665 8.33344 6.03572 8.33344 8.33338C8.33344 10.6307 6.46422 12.4999 4.16656 12.4999ZM4.16656 5.83338C2.78844 5.83338 1.66656 6.95486 1.66656 8.33338C1.66656 9.7115 2.78844 10.8334 4.16656 10.8334C5.54508 10.8334 6.66656 9.7115 6.66656 8.33338C6.66656 6.95486 5.54508 5.83338 4.16656 5.83338ZM12.5 38.3334C12.1768 38.3334 11.8692 38.1442 11.7344 37.8283L9.45063 32.4999H4.16656C1.86922 32.4999 0 30.6307 0 28.3334V17.4999C0 15.6616 1.49508 14.1665 3.33344 14.1665H4.16656C5.63266 14.1665 6.62844 15.234 7.33094 16.1642C7.97 17.0083 9.73906 19.1915 10.3958 19.9999H14.1666C15.5451 19.9999 16.6666 21.1214 16.6666 22.4999V24.1665C16.6666 24.6273 16.2934 24.9999 15.8334 24.9999C15.3733 24.9999 15 24.6273 15 24.1665V22.4999C15 22.04 14.6258 21.6665 14.1666 21.6665H10C9.74922 21.6665 9.51266 21.5542 9.35422 21.3598C9.25078 21.2332 6.80664 18.2332 6.0025 17.1692C5.28414 16.22 4.7525 15.8334 4.16656 15.8334H3.33344C2.41422 15.8334 1.66656 16.5807 1.66656 17.4999V28.3334C1.66656 29.7115 2.78844 30.8334 4.16656 30.8334H10C10.163 30.8332 10.3225 30.881 10.4586 30.9707C10.5947 31.0604 10.7015 31.1882 10.7656 31.3381L13.2656 37.1716C13.4476 37.5942 13.2508 38.0841 12.8284 38.2656C12.7248 38.3107 12.613 38.3337 12.5 38.3334Z" fill="white"/>
<path d="M15.8334 38.3335C15.6584 38.3334 15.4879 38.2782 15.346 38.1759C15.204 38.0737 15.0978 37.9293 15.0424 37.7634L12.279 29.4724C12.1686 29.1405 11.9564 28.8519 11.6727 28.6475C11.3889 28.443 11.048 28.3332 10.6982 28.3335H7.49994C7.04002 28.3335 6.6665 27.9608 6.6665 27.5001V24.1666C6.6665 23.7058 7.04002 23.3335 7.49994 23.3335C7.95986 23.3335 8.33338 23.7058 8.33338 24.1666V26.6666H10.6982C11.3979 26.6658 12.0801 26.8855 12.6478 27.2945C13.2156 27.7036 13.64 28.2811 13.8607 28.9451L16.6241 37.2358C16.7699 37.6725 16.5341 38.1451 16.0974 38.2901C16.0122 38.3185 15.9231 38.3331 15.8334 38.3335Z" fill="white"/>
<path d="M7.50108 25C7.37154 25.0001 7.24374 24.9701 7.12784 24.9123C7.01193 24.8544 6.9111 24.7703 6.83335 24.6667L4.33335 21.3333C4.05678 20.9659 4.13194 20.4434 4.5003 20.1676C4.87014 19.8916 5.39171 19.9659 5.66694 20.3341L8.16694 23.6676C8.4435 24.035 8.36835 24.5574 7.99999 24.8334C7.8562 24.9416 7.68107 25.0001 7.50108 25ZM26.6667 21.6666C26.5573 21.6667 26.4489 21.6452 26.3477 21.6034C26.2466 21.5615 26.1547 21.5002 26.0773 21.4228C26 21.3454 25.9386 21.2535 25.8968 21.1524C25.8549 21.0513 25.8335 20.9429 25.8336 20.8334V15C25.8336 13.1616 24.3385 11.6666 22.5001 11.6666H17.5001C15.6618 11.6666 14.1667 13.1616 14.1667 15V17.5C14.1667 17.9599 13.7935 18.3334 13.3336 18.3334C12.8734 18.3334 12.5001 17.9599 12.5001 17.5V15C12.5001 12.2424 14.7426 10 17.5001 10H22.5001C25.2577 10 27.5001 12.2424 27.5001 15V20.8334C27.5001 21.2942 27.1275 21.6666 26.6667 21.6666ZM20.0001 8.33344C17.7028 8.33344 15.8336 6.46422 15.8336 4.16656C15.8336 1.86922 17.7028 0 20.0001 0C22.2975 0 24.1667 1.86922 24.1667 4.16656C24.1667 6.46422 22.2975 8.33344 20.0001 8.33344ZM20.0001 1.66656C18.6216 1.66656 17.5001 2.78844 17.5001 4.16656C17.5001 5.54508 18.6216 6.66656 20.0001 6.66656C21.3787 6.66656 22.5001 5.54508 22.5001 4.16656C22.5001 2.78844 21.3787 1.66656 20.0001 1.66656Z" fill="white"/>
<path d="M19.1665 13.3335H20.8334V15.0001H19.1665V13.3335Z" fill="white"/>
</svg>

<svg width="40" height="40" fill="none" xmlns="http://www.w3.org/2000/svg"><path d="M19.167 26.666h1.666v11.667h-1.666V26.667zM7.5 23.334h25V25h-25v-1.667zM35.833 12.5a4.171 4.171 0 0 1-4.166-4.167 4.172 4.172 0 0 1 4.166-4.167A4.171 4.171 0 0 1 40 8.334a4.171 4.171 0 0 1-4.167 4.167zm0-6.667a2.503 2.503 0 0 0-2.5 2.5c0 1.378 1.122 2.5 2.5 2.5 1.379 0 2.5-1.122 2.5-2.5s-1.121-2.5-2.5-2.5z" fill="#fff"/><path d="M27.5 38.333a.832.832 0 0 1-.766-1.162l2.5-5.833a.832.832 0 0 1 .766-.505h5.834c1.378 0 2.5-1.121 2.5-2.5V17.5c0-.92-.748-1.667-1.667-1.667h-.834c-.584 0-1.117.387-1.834 1.337-.806 1.063-3.249 4.063-3.352 4.19a.835.835 0 0 1-.647.306h-4.166A.834.834 0 0 0 25 22.5v1.666a.835.835 0 0 1-1.423.59.831.831 0 0 1-.244-.59V22.5c0-1.379 1.122-2.5 2.5-2.5h3.77c.657-.808 2.427-2.992 3.066-3.836.704-.93 1.698-1.998 3.165-1.998h.833A3.337 3.337 0 0 1 40 17.5v10.833a4.171 4.171 0 0 1-4.166 4.167h-5.285l-2.283 5.328a.832.832 0 0 1-.766.505z" fill="#fff"/><path d="M24.166 38.334a.833.833 0 0 1-.79-1.098l2.764-8.29a3.327 3.327 0 0 1 3.162-2.28h2.364v-2.5a.832.832 0 1 1 1.667 0V27.5a.836.836 0 0 1-.833.834h-3.198c-.719 0-1.355.457-1.58 1.138l-2.765 8.291a.835.835 0 0 1-.79.57z" fill="#fff"/><path d="M32.5 25a.832.832 0 0 1-.666-1.332l2.5-3.334a.833.833 0 1 1 1.332 1l-2.5 3.333a.828.828 0 0 1-.667.333zM4.166 12.5A4.171 4.171 0 0 1 0 8.333a4.171 4.171 0 0 1 4.167-4.167 4.172 4.172 0 0 1 4.166 4.167A4.171 4.171 0 0 1 4.167 12.5zm0-6.667a2.503 2.503 0 0 0-2.5 2.5c0 1.378 1.121 2.5 2.5 2.5 1.378 0 2.5-1.122 2.5-2.5s-1.122-2.5-2.5-2.5zm8.333 32.5a.832.832 0 0 1-.766-.505L9.451 32.5H4.167A4.171 4.171 0 0 1 0 28.333V17.5a3.337 3.337 0 0 1 3.333-3.334h.834c1.466 0 2.461 1.068 3.164 1.998.639.844 2.408 3.027 3.065 3.836h3.77c1.38 0 2.5 1.121 2.5 2.5v1.666a.833.833 0 1 1-1.666 0V22.5a.834.834 0 0 0-.833-.834H10a.832.832 0 0 1-.646-.306c-.103-.127-2.547-3.127-3.351-4.19-.719-.95-1.25-1.337-1.836-1.337h-.834c-.919 0-1.666.748-1.666 1.667v10.833c0 1.379 1.121 2.5 2.5 2.5H10a.832.832 0 0 1 .766.505l2.5 5.834a.833.833 0 0 1-.766 1.161z" fill="#fff"/><path d="M15.833 38.334a.834.834 0 0 1-.79-.57l-2.764-8.292a1.664 1.664 0 0 0-1.58-1.139h-3.2a.833.833 0 0 1-.832-.833v-3.333a.833.833 0 1 1 1.666 0v2.5h2.365a3.329 3.329 0 0 1 3.163 2.278l2.763 8.29a.833.833 0 0 1-.79 1.099z" fill="#fff"/><path d="M7.501 25a.835.835 0 0 1-.668-.333l-2.5-3.334a.833.833 0 0 1 1.334-1l2.5 3.335A.832.832 0 0 1 7.5 25zm19.166-3.333a.834.834 0 0 1-.833-.834V15a3.337 3.337 0 0 0-3.334-3.333h-5A3.337 3.337 0 0 0 14.167 15v2.5a.834.834 0 0 1-1.667 0V15c0-2.758 2.243-5 5-5h5c2.758 0 5 2.242 5 5v5.833c0 .461-.372.834-.833.834zM20 8.333a4.171 4.171 0 0 1-4.166-4.166A4.171 4.171 0 0 1 20 0a4.171 4.171 0 0 1 4.167 4.167A4.171 4.171 0 0 1 20 8.333zm0-6.666a2.503 2.503 0 0 0-2.5 2.5c0 1.378 1.122 2.5 2.5 2.5 1.379 0 2.5-1.122 2.5-2.5 0-1.379-1.121-2.5-2.5-2.5z" fill="#fff"/><path d="M19.166 13.334h1.667V15h-1.666v-1.666z" fill="#fff"/></svg>
